!!!COM: Corelli, Arcangelo
!!!OTL: Sonate a tre [in e]
!!!XEN: Trio Sonata Opus 1, No. 2
!!!OPS: Opus 1
!!!ONM: No. 2
!!!OMV: Movement 3.
!!!YEC: Copyright 1994, Center for Computer Assisted Research in the Humanities
!!!YEM: Rights to all derivative electronic formats reserved.
!!!YEM: Refer to licensing agreement for further details.
!! For the following instrumentation: Violino I & II, Violone/Archlute,
!!    and Organo.
!! Adagio.
**kern	**kern	**kern	**kern
*ICklav	*ICstr	*ICstr	*ICstr
*Iorgan	*Icello	*Ivioln	*Ivioln
*	*Iarchl	*	*
!Organo	!Violone	!Violin 2	!Violin 1
!	! or	!	!
!	!Archlute	!	!
*clefF4	*clefF4	*clefG2	*clefG2
*k[f#]	*k[f#]	*k[f#]	*k[f#]
*e:	*e:	*e:	*e:
*M3/4	*M3/4	*M3/4	*M3/4
*MM60	*MM60	*MM60	*MM60
=1-	=1-	=1-	=1-
4r	4r	4r	4r
4E\	4E\	4ee\	4gg\
4BB/	4BB/	4dd#\	4ff#\
=2	=2	=2	=2
2E\	2E\	2ee\	2gg\
4E\	4E\	4ee\	4gg\
=3	=3	=3	=3
2.AA/	2.AA/	4.ff#\	4.aa\
.	.	8gg\L	8bb\L
.	.	8ff#\	8aa\
.	.	8ee\J	8gg\J
=4	=4	=4	=4
2.BB/	2.BB/	2.dd#\	2.ff#\
=5	=5	=5	=5
2G\	2G\	2b\	2ee\
4F#\	4F#\	4a/	4dd\
=6	=6	=6	=6
2E\	2E\	2g/	2cc\
[4D\	[4D\	[4f#/	[4b\
=7	=7	=7	=7
4D\]	4D\]	4f#/]	4b\]
2C/	2C/	2e/	2a/
=8	=8	=8	=8
4BB/	4BB/	4d#/	4b\
4B\	4B\	4ff#\	4dd#\
4A\	4A\	4ff#\	4dd#\
=9	=9	=9	=9
2G\	2G\	2b\	2ee\
4D#\	4D#\	4b\	4ff#\
=10	=10	=10	=10
2E\	2E\	2b\	2gg\
[4F#\	[4F#\	[4a#/	[4ff#\
=11	=11	=11	=11
4F#\]	4F#\]	4a#/]	4ff#\]
2G\	2G\	2b\	2ee\
=12	=12	=12	=12
2F#\	2F#\	4a#/	2ff#\
.	.	[2ff#\	.
4F#\	4F#\	.	4a#/
=13	=13	=13	=13
2G#\	2G#\	4ff#\]	2b\
.	.	[2ee\	.
4A#\	4A#\	.	4cc#\
=14	=14	=14	=14
2B\	2B\	4ee\]	2f#/
.	.	[2dd\	.
4D\	4D\	.	4f#/
=15	=15	=15	=15
2E\	2E\	4dd\]	2g/
.	.	[2cc\	.
4F#\	4F#\	.	4a/
=16	=16	=16	=16
2G\	2G\	4cc\]	2d/
.	.	[2b\	.
4D\	4D\	.	4ff#\
=17	=17	=17	=17
4E\	4E\	4b\]	8ee\L
.	.	.	8dd\J
2F#\	2F#\	4.b\	2cc#\
.	.	8a#/	.
=18	=18	=18	=18
2BB/	2BB/	2b\	4b\
.	.	.	[2bb\
4BB/	4BB/	4dd#\	.
=19	=19	=19	=19
2C#/	2C#/	2ee\	4bb\]
.	.	.	[2aa\
4D#\	4D#\	4ff#\	.
=20	=20	=20	=20
2E\	2E\	2b\	4aa\]
.	.	.	[2gg\
4G\	4G\	4b\	.
=21	=21	=21	=21
2A\	2A\	2cc\	4gg\]
.	.	.	[2ff\
4B\	4B\	4dd\	.
=22	=22	=22	=22
2c\	2c\	2g/	4ff\]
.	.	.	[2ee\
4G\	4G\	4bb\	.
=23	=23	=23	=23
4A\	4A\	(8aa\L	4ee\]
.	.	8gg\J)	.
2B\	2B\	2ff#\	4.ee\
.	.	.	8dd#\
=24	=24	=24	=24
2E\	2E\	2ee\	4ee\
.	.	.	[2cc\
4C/	4C/	4a/	.
=25	=25	=25	=25
2D\	2D\	2f#/	4cc\]
.	.	.	[2b\
4BB/	4BB/	4g/	.
=26	=26	=26	=26
2C/	2C/	2e/	4b\]
.	.	.	[2a/
4AA/	4AA/	4f#/	.
=27	=27	=27	=27
2BB/	2BB/	2d#/	2a/]
[4EE/	[4EE/	[4e/	[4g/
=28	=28	=28	=28
4EE/]	4EE/]	4e/]	4g/]
2BB/	2BB/	4.e/	2f#/
.	.	8d#/	.
=29	=29	=29	=29
2.EE/	2.EE/	2.e/	2.e/
==	==	==	==
*-	*-	*-	*-
!!!CDT: 1653/2/17/-1713/1/8
!!!OCY: Italia
!!!ODE: Queen Christina Alexandra of Sweden
!!!ODT: 1681//
!!!OPC: Roma; Rome
!!!AGN: trio sonata
!!!AST: baroque, chamber
!!!AMT: simple triple
!!!YOR1: J. Joachim & F. Chrysander (eds.) Les Oeuvre de Arcangelo Corelli
!!!YOR2: London: Augener & Co. 1871
!!!YOY: 1871
!!!AIN: archl cello organ violn
!!!EEV: 1.1
!!!RDT: 1990 February 15
!!!YER: 1994 December 14
!!!EMD: 1996 July 9
!!!YEN: United States of America
!!!EFL: 3/4
!!!ENC: Frances Bennion & Steven Rasmussen
!!!EED: W.B. Hewlett
!!!VTS: 2989620464
